!!!COM: Georges Bizet
!!!CNT: Francais
!!!TXO: Francais
!!!OTL: Chant d'Amour!
!!!LYR: A. de Lamartine
!!!ENC: Jacob Pegg
!!!YOR: Georges Bizet: Twenty Melodies. A Kalmus Classic Edition.
!!!YOR: Miami: Warner Bros. Publications,1990. ISBN 0-7692-4977-9
!!!ODT: 1872/
!!NB: Vocal melody and text only encoded.
!!NB: First instance of melodic material only encoded.
**kern	**silbe
*clef G2	*
*k[b-e-a-]	*
*M4/4	*
=1	=1
2r	.
{4g	{Viens,
8r	.
8g	cher-
=2	=2
4.a-	-ons
8g	une
4f	om-
8e-	-bre
8d	pro-
=3	=3
4cc	-pi-
8b-}	-ce}
8r	.
{4.ee-	{Jus-
8a-	-qu'a\
=4	=4
4a-	l'heure
8f#	ou\
8g	de
4.cc	ce
8fn	se/-
=5	=5
[4f	jour
8f]}	|}
8r	.
{2g	{Les
=6	=6
4a-	fleurs
8a-	fer-
8g	-me-
4f	-ront
8.e-	leur
16d	ca-
=7	=7
4cc	-li-
8b-}	-ce}
8r	.
{4ee-	{Aux
4dd	re-
=8	=8
4b-	-gards
8cc	lan-
8dd	-guis-
(16ccq	|
16ddq	|
4.cc)	-sants
8b-	du
=9	=9
[4b-	jour.
8b-]}	|}
16r	.
{16b-	{Voi-
4ff	-la\
4ee-	ton-
=10	=10
[8dd	ciel,
16dd]	|
16r	.
4cc	o^
4.b-	mon
8f	e/-
=11	=11
4f	-toi-
8g}	-le!}
16r	.
{16b-	{Sou-
4ff	-le\-
8ee-	-ve,
8r	.
=12	=12
4dd	oh!
4cc	sou-
4b-	-le\-
8.a-	-ve
16b-	ce
=13	=13
4a-	voi-
8g}	-le,}
8r	.
{2g	{E/-
=14	=14
4a-	-clai-
8a-	-re
8g	la
4f	nuit
8.e-	de
16d	ces
=15	=15
(4b-	lieux;
[8bn)	|
16bn]}	|}
16r	.
{[4cc	{Par-
8cc]	-le,
8r	.
=16	=16
4ee-	chan-
8dd-	-te,
8r	.
(8cc	re^-
8b-)	|
8a-	-ve,
16r	.
16g	sou-
=17	=17
4ff	-pi-
16ee-}	-re,}
16r	.
{8ee-	{Pour-
4ddn	-vu
4cc	que
=18	=18
4cc	mon
4b-	re-
4.a-	-gard
8g	at-
=19	=19
[4.dd	-ti-
16dd]}	-re}
16r	.
{8cc	{Un
8f	re-
8en	-gard
8f	er-
=20	=20
(2.a-	-rant
16gq	|
16a-q	|
16b-q	|
16a-q	|
8.g;)	de
16f	tes
=21	=21
[2e-	yeux.
4e-]}	|}
4r	.
*-	*-
